packages/icons/svg/Outline/navigation-2.svg

<svg fill="none" height="24" viewBox="0 0 24 24" width="24" xmlns="http://www.w3.org/2000/svg"><path clip-rule="evenodd" d="m7.86622 9.09859 5.19798 1.05701c.394.079.701.386.781.78l1.056 5.198 3.518-10.55301zm6.80098 11.90091c-.021 0-.041-.001-.061-.002-.452-.027-.829-.355-.92-.798l-1.669-8.217-8.21597-1.67c-.444-.09-.772-.46701-.799-.91901-.028-.452.252-.866.681-1.009l15.99997-5.333c.36-.122.756-.027 1.024.241s.361.664.242 1.024l-5.334 16.00001c-.137.41-.52.683-.948.683z" fill="#6b7280" fill-rule="evenodd"/></svg>

<svg width="24" height="24" viewBox="0 0 24 24" fill="none" xmlns="http://www.w3.org/2000/svg">
<g id="Icon/Outline/navigation-2">
<path id="Mask" fill-rule="evenodd" clip-rule="evenodd" d="M7.86617 9.09861L13.0642 10.1556C13.4582 10.2346 13.7652 10.5416 13.8452 10.9356L14.9012 16.1336L18.4192 5.58061L7.86617 9.09861ZM14.6672 20.9996C14.6462 20.9996 14.6262 20.9986 14.6062 20.9976C14.1542 20.9706 13.7772 20.6426 13.6862 20.1996L12.0172 11.9826L3.80117 10.3126C3.35717 10.2226 3.02917 9.84561 3.00217 9.39361C2.97417 8.94161 3.25417 8.52761 3.68317 8.38461L19.6832 3.05161C20.0432 2.92961 20.4392 3.02461 20.7072 3.29261C20.9752 3.56061 21.0682 3.95661 20.9492 4.31661L15.6152 20.3166C15.4782 20.7266 15.0952 20.9996 14.6672 20.9996Z" fill="#000000"/>
</g>
</svg>
